src/lib/packages/icons/src/assets/filled/bookmark-user.svg

<svg width="24" height="24" viewBox="0 0 24 24" fill="none" xmlns="http://www.w3.org/2000/svg">
<path d="M16 3H8C6 3 5 4 5 6V21L12 17L19 21V6C19 4 18 3 16 3ZM12 6C13.186 6 14.1499 6.96402 14.1499 8.15002C14.1499 9.33602 13.185 10.3 12 10.3C10.815 10.3 9.8501 9.33602 9.8501 8.15002C9.8501 6.96402 10.814 6 12 6ZM15.5 14.5C15.5 14.776 15.276 15 15 15H9C8.724 15 8.5 14.776 8.5 14.5V14.197C8.5 12.857 9.48091 11.5 11.3579 11.5H12.6411C14.5181 11.5 15.499 12.856 15.499 14.197V14.5H15.5Z" fill="currentColor"/>
</svg>

<svg xmlns="http://www.w3.org/2000/svg" width="24" height="24" fill="none"><path fill="currentColor" d="M16 3H8C6 3 5 4 5 6v15l7-4 7 4V6c0-2-1-3-3-3Zm-4 3c1.186 0 2.15.964 2.15 2.15S13.185 10.3 12 10.3a2.152 2.152 0 0 1-2.15-2.15C9.85 6.964 10.814 6 12 6Zm3.5 8.5a.5.5 0 0 1-.5.5H9a.5.5 0 0 1-.5-.5v-.303c0-1.34.98-2.697 2.858-2.697h1.283c1.877 0 2.858 1.356 2.858 2.697v.303h.001Z"/></svg>
